bulldozer.svg

<svg fill="currentColor" viewBox="0 0 24 24"><path d="M4 4a1 1 0 0 0-1 1v5c-.46 0-.86.31-.97.76v3.21h.26C2.65 13.37 3.3 13 4 13h9c.7 0 1.35.37 1.71.97h1.32L16 11a1 1 0 0 0-1-1h-2V8a1 1 0 0 0-1-1 1 1 0 0 0-1 1v2H9V5a1 1 0 0 0-1-1zm1 2h2v5H5zm12 5v8h5v-1l-3-1-1-6zM4 15a2 2 0 0 0-2 2 2 2 0 0 0 2 2h9a2 2 0 0 0 2-2 2 2 0 0 0-2-2z"/></svg>

<svg  viewBox="0 0 24 24" fill="currentColor"><path  d="M4,4A1,1 0 0,0 3,5V10C2.54,10 2.14,10.31 2.03,10.76V13.97H2.29C2.65,13.37 3.3,13 4,13H13C13.7,13 14.35,13.37 14.71,13.97H16.03L16,11V11A1,1 0 0,0 15,10H13V8A1,1 0 0,0 12,7A1,1 0 0,0 11,8V10H9V5A1,1 0 0,0 8,4H4M5,6H7V10L7,11H5V6M17,11V19H22V18L19,17L18,11H17M4,15A2,2 0 0,0 2,17A2,2 0 0,0 4,19H13A2,2 0 0,0 15,17A2,2 0 0,0 13,15H4Z"/></svg>
